src/assets/icons/science-history,fancy,history.svg

<svg width="48" height="48" viewBox="0 0 48 48" fill="none" xmlns="http://www.w3.org/2000/svg">
<g opacity="0.4">
<path d="M16 35.0283C16 38.342 13.3137 41.0283 10 41.0283C6.68629 41.0283 4 38.342 4 35.0283C4 31.7146 6.68629 29.0283 10 29.0283C13.3137 29.0283 16 31.7146 16 35.0283Z" fill="black"/>
<path d="M44 35.0283C44 38.342 41.3137 41.0283 38 41.0283C34.6863 41.0283 32 38.342 32 35.0283C32 31.7146 34.6863 29.0283 38 29.0283C41.3137 29.0283 44 31.7146 44 35.0283Z" fill="black"/>
<path d="M10 34.0283H38V41.0283H10V34.0283Z" fill="black"/>
</g>
<g opacity="0.8">
<path fill-rule="evenodd" clip-rule="evenodd" d="M18 13.5283C18.8284 13.5283 19.5 14.1999 19.5 15.0283V28.0283C19.5 28.8567 18.8284 29.5283 18 29.5283C17.1716 29.5283 16.5 28.8567 16.5 28.0283V15.0283C16.5 14.1999 17.1716 13.5283 18 13.5283Z" fill="black"/>
<path fill-rule="evenodd" clip-rule="evenodd" d="M24 11.5283C24.8284 11.5283 25.5 12.1999 25.5 13.0283V28.0283C25.5 28.8567 24.8284 29.5283 24 29.5283C23.1716 29.5283 22.5 28.8567 22.5 28.0283V13.0283C22.5 12.1999 23.1716 11.5283 24 11.5283Z" fill="black"/>
<path fill-rule="evenodd" clip-rule="evenodd" d="M30 11.5283C30.8284 11.5283 31.5 12.1999 31.5 13.0283V28.0283C31.5 28.8567 30.8284 29.5283 30 29.5283C29.1716 29.5283 28.5 28.8567 28.5 28.0283V13.0283C28.5 12.1999 29.1716 11.5283 30 11.5283Z" fill="black"/>
</g>
<path fill-rule="evenodd" clip-rule="evenodd" d="M20.8888 7.22281C20.0716 6.81421 19.0814 7.01136 18.483 7.7018L13.2443 13.7465C13.0867 13.9283 13 14.1608 13 14.4014V29.8311C14.5183 30.7094 15.616 32.2338 15.917 34.0284H32.083C32.384 32.2338 33.4817 30.7094 35 29.8311V7.00179C35 6.18269 34.0692 5.711 33.4086 6.19539L28.4848 9.80618C27.8802 10.2496 27.0783 10.3175 26.4077 9.98222L20.8888 7.22281ZM24 11.5284C24.8284 11.5284 25.5 12.2 25.5 13.0284V28.0284C25.5 28.8568 24.8284 29.5284 24 29.5284C23.1716 29.5284 22.5 28.8568 22.5 28.0284V13.0284C22.5 12.2 23.1716 11.5284 24 11.5284ZM19.5 15.0284C19.5 14.2 18.8284 13.5284 18 13.5284C17.1716 13.5284 16.5 14.2 16.5 15.0284V28.0284C16.5 28.8568 17.1716 29.5284 18 29.5284C18.8284 29.5284 19.5 28.8568 19.5 28.0284V15.0284ZM31.5 13.0284C31.5 12.2 30.8284 11.5284 30 11.5284C29.1716 11.5284 28.5 12.2 28.5 13.0284V28.0284C28.5 28.8568 29.1716 29.5284 30 29.5284C30.8284 29.5284 31.5 28.8568 31.5 28.0284V13.0284Z" fill="black"/>
</svg>

<svg xmlns="http://www.w3.org/2000/svg" width="48" height="48" fill="none" viewBox="0 0 48 48">
  <g opacity=".4">
    <path fill="#000" d="M16 35.028a6 6 0 11-12 0 6 6 0 0112 0zM44 35.028a6 6 0 11-12 0 6 6 0 0112 0z"/>
    <path fill="#000" d="M10 34.028h28v7H10v-7z"/>
  </g>
  <g opacity=".8">
    <path fill="#000" fill-rule="evenodd" d="M18 13.528a1.5 1.5 0 011.5 1.5v13a1.5 1.5 0 01-3 0v-13a1.5 1.5 0 011.5-1.5zM24 11.528a1.5 1.5 0 011.5 1.5v15a1.5 1.5 0 01-3 0v-15a1.5 1.5 0 011.5-1.5zM30 11.528a1.5 1.5 0 011.5 1.5v15a1.5 1.5 0 01-3 0v-15a1.5 1.5 0 011.5-1.5z" clip-rule="evenodd"/>
  </g>
  <path fill="#000" fill-rule="evenodd" d="M20.889 7.223a2 2 0 00-2.406.479l-5.239 6.044a1 1 0 00-.244.655v15.43a6.005 6.005 0 012.917 4.197h16.166A6.005 6.005 0 0135 29.831V7.001a1 1 0 00-1.591-.806l-4.924 3.611a2 2 0 01-2.077.176l-5.52-2.76zM24 11.528a1.5 1.5 0 011.5 1.5v15a1.5 1.5 0 01-3 0v-15a1.5 1.5 0 011.5-1.5zm-4.5 3.5a1.5 1.5 0 00-3 0v13a1.5 1.5 0 003 0v-13zm12-2a1.5 1.5 0 00-3 0v15a1.5 1.5 0 003 0v-15z" clip-rule="evenodd"/>
</svg>
